assets/images/icons/src/cube.svg

<?xml version="1.0" encoding="utf-8"?>
<!-- Generated by IcoMoon.io -->
<!DOCTYPE svg PUBLIC "-//W3C//DTD SVG 1.1//EN" "http://www.w3.org/Graphics/SVG/1.1/DTD/svg11.dtd">
<svg version="1.1" xmlns="http://www.w3.org/2000/svg" xmlns:xlink="http://www.w3.org/1999/xlink" width="13" height="14" viewBox="0 0 13 14">
<path fill="#444444" d="M7 12.727l5-2.727v-4.969l-5 1.82v5.875zM6.5 5.969l5.453-1.984-5.453-1.984-5.453 1.984zM13 4v6q0 0.273-0.141 0.508t-0.383 0.367l-5.5 3q-0.219 0.125-0.477 0.125t-0.477-0.125l-5.5-3q-0.242-0.133-0.383-0.367t-0.141-0.508v-6q0-0.312 0.18-0.57t0.477-0.367l5.5-2q0.172-0.062 0.344-0.062t0.344 0.062l5.5 2q0.297 0.109 0.477 0.367t0.18 0.57z"></path>
</svg>

<svg xmlns="http://www.w3.org/2000/svg" width="13" height="14" viewBox="0 0 13 14"><path fill="#444" d="M7 12.727L12 10V5.031l-5 1.82v5.875zm-.5-6.758l5.453-1.984L6.5 2.001 1.047 3.985zM13 4v6q0 .273-.141.508t-.383.367l-5.5 3Q6.757 14 6.499 14t-.477-.125l-5.5-3q-.242-.133-.383-.367T-.002 10V4q0-.312.18-.57t.477-.367l5.5-2q.172-.062.344-.062t.344.062l5.5 2q.297.109.477.367T13 4z"/></svg>
